!!!SOCIAL_FUNCTION:	steal-partner dance songs
!!!PDT:	1943
!!!LING_GROUP: Muskogean
!!!LANG: Non-Tone
Specific Region: Oklahoma, California, Mississippi, Louisiana, Texas, Alabama
!!!REG: Southeast
!!!COM: Anon.
!!!OTL: Steal-partner Dance Song (a)
!!!ODT: <1933//
!!!MPN: Lysander Tubby and Gus Willis
!!!MLC: Philadelphia, Mississippi, United States of America
!! Song was recorded in January 1933.
!!!AGN: monody
!!!AMT: irregular
!!!RWG: Transcribed pitches, durations, and meters are only approximate.
**kern
*ICvox
*Imale
*clefF4
*k[b-e-a-d-]
*M2/4
*MM80
*[A,B,C,B]
*>A
=1-
(8A-L
8G)J
4A-
=2
4c
4B-
*M3/8
=3
4A-
8A-
*M2/4
=4
(4.F
8E-)
=5
8FL
8FJ
4F
=6
(8E-L
8C)J
8C
8r
*M5/8
=7
4G
8GL
8F
8GJ
*M2/4
=8
4.F
8E-
=9
8FL
8FJ
4F
=10
8E-L
8CJ
8C
8r
*M5/8
=11
4F
8FL
8F
8A-J
*M2/4
=12
4.F
8E-
=13
8FL
8FJ
4F
=14
8E-L
8CJ
8C
8r
*M5/8
=15
4G
8GL
8F
8GJ
*M2/4
=16
4.F
8E-
=17
8FL
8FJ
4F
=18
8E-L
8CJ
8C
8r
*M5/8
=19
4F
8FL
8F
8A-J
*M2/4
=20
2F
*>B
*M5/8
=!|:21
8FL
8FJ
4F
8c
*k[bnenandn]
*M2/4
=||22
(12AL
12G)
12AJ
8.G
16F
=23
4F
8r
8A
=24
!! presume that the next measure remains with the same key signature
(12AL
12G)
12AJ
8.G
16G
=25
*MM80
2F
=26
(8DL
8C)J
4D
*M5/8
=27
4G
8GL
8F
8GJ
!! presume that the key signature returns her to the original
*k[b-e-a-d-]
*M2/4
=28
(4.F
8E-)
=29
8FL
8FJ
4F
=30
(8D-L
8C)J
4D-
*M5/8
=31
4F
8FL
8F
8GJ
*M2/4
=32
4F
4r
=33
8FL
8FJ
4F
!! Fine
==34
*>C
8GL
8GJ
4G
=35
4c
4B-
*M3/8
=36
4G
8G
*M2/4
=37
4F
4r
=38
8FL
8FJ
4F
=39
(8D-L
8C)J
4D-
*M5/8
=40
4G
8GL
8F
8GJ
*M2/4
=41
(4.F
8D-)
=42
8FL
8FJ
4F
=43
(8D-L
8C)J
4D-
*M5/8
=44
4F
8FL
8F
8GJ
*M2/4
=45
4F
4r
=:|!46
*-
!!!CNT: Choctaw
!!!TXO: Choctaw
!!!OCY: United States
!!!OCL: Frances Densmore
!!!YOR: Frances Densmore, "Choctaw Music"
!!!YOR: Bulletin 136, page 154, No. 33
!!!PPR: Smithsonian Institution, Bureau of American Ethnology
!!!PPR: Government Printing Office
!!!PDT: 1943
!!!PPP: Washington, DC, United States of America
!!!YEC: Electronic Copyright 2000 David Huron
!!!YER: August 2000
!!!YEN: United States of America
!!!ENC: David Huron
!!!RDT: August 28, 2000
!!!EEV: Release 1.0
!!!AIN: vox
